X: 3
T: Cloch Na Ceithre Mhile
R: reel
M: 4/4
L: 1/8
K: Ador
A2eA ~A2eA|~A2ge dBAB|G2(3BAG dGBA|G~B3 GBdB|
A2eA ~A2AB|(3cBA BG AGAB| (3cBA BG AG.E A|1 GEDG EBdB:|2 GEDG EAAG|
|:A2cA eA ~A2|A ~e3 d2BA|G2dG eG .d2|(3ded (3BdB (3GAG DA|
E2 ~A2 AB (3cde|AG ED~E2AB|(3cBA BG AGEA|GEDG EAAG:|
